X:1
T: Marquis of Lorne
T: 8 x 32S 3C (MMM II)
P: Marquis Of Lorn
C: Neil Gow Collection (no "e")
C: Arr. T. Traub 5-Aug-06
R: Strathspey
M: 4/4
K: D
L: 1/8
g|"D"f>de>c d>FDF|"C"E>=CC<E "G"G2 G>g|"D"f>de>c d>FDF|A>FDF A2-A>=c|"G"B>G"D"A>F d>FDF|
"C"G/F/E/D/ =C<E G<cG<E|"D"F<D"Em"G<E "D"A<F"G"B<G|d/c/B/A/ "A"d>F "D"D2 D || g|"D"f2 d<a f<da>f|
"C"g>e=c>e "G"g2 g>a|"D"f2 d<a f>g!beambr1!a<f|a<fd<a f<da>d|"D"f2 d<a f>g!beambr1!a<f|"C"g>e=c<g e<cg<e|
"D"a>f"A"g>e "D"f>d"A"e>c|"G"d/c/B/A/ "A"d>F "D"D2 D |]

N: |: g|"D"f>de>c d>FDF|"C"E>=CC<E "G"G2 G>g|"D"f>de>c d>FDF|A>FDF A2-A>=c|"G"B>G"D"A>F d>FDF|
N: "C"G/F/E/D/ =C<E G<cG<E|"D"F<D"Em"G<E "D"A<F"G"B<G|d/c/B/A/ "A"d>F "D"D2 D :| g|"D"f2 d<a f<da>f|
N: "C"g>e=c>e "G"g2 g>a|"D"f2 d<a f>g!beambr1!a<f|a<fd<a f<da>d|"D"f2 d<a f>g!beambr1!a<f|"C"g>e=c<g e<cg<e|
N: "D"a>f"A"g>e "D"f>d"A"e>c|"G"d/c/B/A/ "A"d>F "D"D2 D>g||"D"f2 d<a f<da>f|"C"g>e=c>e "G"g2 g>a|"D"f2 d<a f>g!beambr1!a<f|
N: a<fd<f a>b!beambr1!a<f| "G"g<bg<e "D"f<af<d|"A"e<ge<d c>d!beambr1!e<g|"D"a>f"A"g>e "D"f>d"A"e>c|"G"d/c/B/A/ "A"d>F "D"D2 D|]